X:1
T:German, 11.11
T:German, 11.11
T:German tune
T:Public Domain Courtesy of the Cyber Hymnal™
C:German tune
Z:Public Domain
Z:Courtesy of the Cyber Hymnal™
%%score ( 1 2 ) ( 3 4 )
L:1/8
Q:1/4=115
M:4/4
K:Bb
V:1 treble 
V:2 treble 
V:3 bass 
V:4 bass 
V:1
 [DF]2 [FB]2 [EG]2 [Gc]2 | [FB]4 [FA]4 | F2 [FB]2 [EG]2 [Ge]2 | (d4 c4) | %4
 [CF]2 [CE]2 [B,D]2 [B,G]2 | F4 [B,D]4 | [CF]2 F2 d2 z x3 | [DB]8 |] %8
V:2
 x8 | x8 | F2 x6 | F8 | x8 | (D2 C2) x4 | x2 F2 F3 (c2 E) | x8 |] %8
V:3
 [B,,B,]2 [D,B,]2 [E,B,]2 [C,E]2 | [F,D]4 [F,C]4 | [F,A,]2 [D,B,]2 [E,B,]2 [C,B,]2 | (B,4 A,4) | %4
 [A,,F,]2 [A,,F,]2 [B,,F,]2 [E,G,]2 | (B,2 A,2) [G,B,]4 | [F,A,]2 B,2 [F,B,]2 [F,A,]2 x2 | %7
 [B,,B,]8 |] %8
V:4
 x8 | x8 | x8 | F,8 | x8 | F,4 x4 | x2 (D,E,) x6 | x8 |] %8

